rospo-icon-theme-classic-common/48x48/apps/dirt-rally.svg

<svg height="48" width="48" xmlns="http://www.w3.org/2000/svg"><rect fill="#4f4f4f" height="40" rx="2" transform="matrix(0 -1 -1 0 0 0)" width="40" x="-44" y="-44"/><path d="m6 4c-1.108 0-2 .892-2 2v1c0-1.108.892-2 2-2h36c1.108 0 2 .892 2 2v-1c0-1.108-.892-2-2-2z" fill="#fff" opacity=".1"/><path d="m6 45c-1.108 0-2-.892-2-2v-1c0 1.108.892 2 2 2h36c1.108 0 2-.892 2-2v1c0 1.108-.892 2-2 2z" opacity=".2"/><path d="m15 9c-.554 0-1 .446-1 1v9 9c0 .554.446 1 1 1h9a9.9999999 9.9999999 0 0 0 10-10 9.9999999 9.9999999 0 0 0 -10-10zm5.400391 6h3.599609a3.9999999 3.9999999 0 0 1 4 4 3.9999999 3.9999999 0 0 1 -4 4h-3.599609c-.2216 0-.400391-.178791-.400391-.400391v-3.599609-3.599609c0-.2216.178791-.400391.400391-.400391z" opacity=".2"/><path d="m15 8c-.554 0-1 .446-1 1v9 9c0 .554.446 1 1 1h9a9.9999999 9.9999999 0 0 0 10-10 9.9999999 9.9999999 0 0 0 -10-10zm5.400391 6h3.599609a3.9999999 3.9999999 0 0 1 4 4 3.9999999 3.9999999 0 0 1 -4 4h-3.599609c-.2216 0-.400391-.178791-.400391-.400391v-3.599609-3.599609c0-.2216.178791-.400391.400391-.400391z" fill="#fff"/><g fill="none" stroke-linecap="round" stroke-width="1.999874"><g opacity=".2" stroke="#000" transform="translate(0 1)"><path d="m11.013835 40.985723-1.999875-2.999812m-1.9998758-.999939s3.9997508.464471 3.9997508-1.999872c0-2.464346-3.9997508-1.999875-3.9997508-1.999875m.0000983 7.999596v-7.999498"/><path d="m15.014179 37.98601h3.999748m-3.999648 2.999811v-5.999622m3.999648 5.999622v-5.999622m-3.999748 0s0-1.999876 1.999874-1.999876 1.999874 1.999876 1.999874 1.999876" stroke-linejoin="bevel"/><path d="m23.000037 33.000465v7.999498h3.999747" stroke-linejoin="round"/><path d="m31.000037 33.000465v7.999498h3.999747" stroke-linejoin="round"/><path d="m39.008333 40.985821v-3.999751m2.999811-3.999747-2.999811 3.999747m-2.999811-3.999747 2.999811 3.999747"/></g><g stroke="#f07400"><path d="m11.013835 40.985723-1.999875-2.999812m-1.9998758-.999939s3.9997508.464471 3.9997508-1.999872c0-2.464346-3.9997508-1.999875-3.9997508-1.999875m.0000983 7.999596v-7.999498"/><path d="m15.014179 37.98601h3.999748m-3.999648 2.999811v-5.999622m3.999648 5.999622v-5.999622m-3.999748 0s0-1.999876 1.999874-1.999876 1.999874 1.999876 1.999874 1.999876" stroke-linejoin="bevel"/><path d="m23.000037 33.000465v7.999498h3.999747" stroke-linejoin="round"/><path d="m31.000037 33.000465v7.999498h3.999747" stroke-linejoin="round"/><path d="m39.008333 40.985821v-3.999751m2.999811-3.999747-2.999811 3.999747m-2.999811-3.999747 2.999811 3.999747"/></g></g></svg>

<svg xmlns="http://www.w3.org/2000/svg" width="48" height="48" version="1">
 <rect style="fill:#4f4f4f" width="40" height="40" x="-44" y="-44" rx="2" ry="2" transform="matrix(0,-1,-1,0,0,0)"/>
 <path style="opacity:0.1;fill:#ffffff" d="M 6,4 C 4.892,4 4,4.892 4,6 L 4,7 C 4,5.892 4.892,5 6,5 l 36,0 c 1.108,0 2,0.892 2,2 L 44,6 C 44,4.892 43.108,4 42,4 L 6,4 Z"/>
 <path style="opacity:0.2" d="M 6,45 C 4.892,45 4,44.108 4,43 l 0,-1 c 0,1.108 0.892,2 2,2 l 36,0 c 1.108,0 2,-0.892 2,-2 l 0,1 c 0,1.108 -0.892,2 -2,2 L 6,45 Z"/>
 <path style="opacity:0.2" d="m 15,9 c -0.554,0 -1,0.446 -1,1 l 0,9 0,9 c 0,0.554 0.446,1 1,1 l 9,0 A 9.9999999,9.9999999 0 0 0 34,19 9.9999999,9.9999999 0 0 0 24,9 L 15,9 Z M 20.400391,15 24,15 a 3.9999999,3.9999999 0 0 1 4,4 3.9999999,3.9999999 0 0 1 -4,4 l -3.599609,0 C 20.178791,23 20,22.821209 20,22.599609 L 20,19 20,15.400391 C 20,15.178791 20.178791,15 20.400391,15 Z"/>
 <path style="fill:#ffffff" d="M 15 8 C 14.446 8 14 8.446 14 9 L 14 18 L 14 27 C 14 27.554 14.446 28 15 28 L 24 28 A 9.9999999 9.9999999 0 0 0 34 18 A 9.9999999 9.9999999 0 0 0 24 8 L 15 8 z M 20.400391 14 L 24 14 A 3.9999999 3.9999999 0 0 1 28 18 A 3.9999999 3.9999999 0 0 1 24 22 L 20.400391 22 C 20.178791 22 20 21.821209 20 21.599609 L 20 18 L 20 14.400391 C 20 14.178791 20.178791 14 20.400391 14 z"/>
 <g style="opacity:0.2;stroke:#000000" transform="translate(0,1)">
  <path style="fill:none;stroke:#000000;stroke-width:1.999874;stroke-linecap:round" d="M 11.013835,40.985723 9.01396,37.985911 M 7.0140842,36.985972 c 0,0 3.9997508,0.464471 3.9997508,-1.999872 0,-2.464346 -3.9997508,-1.999875 -3.9997508,-1.999875 m 9.83e-5,7.999596 0,-7.999498"/>
  <path style="fill:none;stroke:#000000;stroke-width:1.999874;stroke-linecap:round;stroke-linejoin:bevel" d="m 15.014179,37.98601 3.999748,0 m -3.999648,2.999811 0,-5.999622 m 3.999648,5.999622 0,-5.999622 m -3.999748,0 c 0,0 0,-1.999876 1.999874,-1.999876 1.999874,0 1.999874,1.999876 1.999874,1.999876"/>
  <path style="fill:none;stroke:#000000;stroke-width:1.999874;stroke-linecap:round;stroke-linejoin:round" d="m 23.000037,33.000465 0,7.999498 3.999747,0 0,0"/>
  <path style="fill:none;stroke:#000000;stroke-width:1.999874;stroke-linecap:round;stroke-linejoin:round" d="m 31.000037,33.000465 0,7.999498 3.999747,0 0,0"/>
  <path style="fill:none;stroke:#000000;stroke-width:1.999874;stroke-linecap:round" d="m 39.008333,40.985821 0,-3.999751 m 2.999811,-3.999747 -2.999811,3.999747 m -2.999811,-3.999747 2.999811,3.999747"/>
 </g>
 <g>
  <path style="fill:none;stroke:#f07400;stroke-width:1.999874;stroke-linecap:round" d="M 11.013835,40.985723 9.01396,37.985911 M 7.0140842,36.985972 c 0,0 3.9997508,0.464471 3.9997508,-1.999872 0,-2.464346 -3.9997508,-1.999875 -3.9997508,-1.999875 m 9.83e-5,7.999596 0,-7.999498"/>
  <path style="fill:none;stroke:#f07400;stroke-width:1.999874;stroke-linecap:round;stroke-linejoin:bevel" d="m 15.014179,37.98601 3.999748,0 m -3.999648,2.999811 0,-5.999622 m 3.999648,5.999622 0,-5.999622 m -3.999748,0 c 0,0 0,-1.999876 1.999874,-1.999876 1.999874,0 1.999874,1.999876 1.999874,1.999876"/>
  <path style="fill:none;stroke:#f07400;stroke-width:1.999874;stroke-linecap:round;stroke-linejoin:round" d="m 23.000037,33.000465 0,7.999498 3.999747,0 0,0"/>
  <path style="fill:none;stroke:#f07400;stroke-width:1.999874;stroke-linecap:round;stroke-linejoin:round" d="m 31.000037,33.000465 0,7.999498 3.999747,0 0,0"/>
  <path style="fill:none;stroke:#f07400;stroke-width:1.999874;stroke-linecap:round" d="m 39.008333,40.985821 0,-3.999751 m 2.999811,-3.999747 -2.999811,3.999747 m -2.999811,-3.999747 2.999811,3.999747"/>
 </g>
</svg>
